X:1
T:Title
%%score { ( 1 3 ) | ( 2 4 ) }
L:1/8
Q:1/4=100
M:4/4
K:G
V:1 treble nm="Grand Piano"
V:3 treble 
V:2 bass 
V:4 bass 
V:1
 G2 G2 GDB,D | G2 [DFA]>[DFA] [DGB]4 | [DAc]>[DAc] [DAc][DAc] BB B2 | AGFG [DFA]3 D | %4
w: John~R.~Sweney * * * * *||||
 G>G GG GDB,D |[M:7/8] GG[DFA] [DFA] [DGB]3 |[M:1/8] [DB] | %7
w: |||
[M:4/4] [=Fd]>[Fd] [Fd][Fd] [Ed][Ec][DEB][CEA] | [B,DG][B,DG] [DGB]>[CFA] [B,G]4 | %9
w: ||
 [DFA]2 [DAc]2 B2 d2 | A2 c2 B2 d2 | [Ge]>[Ge] [Ge][Ge] ed d2 | ^c>[Gc] [Gc][Gc] [Fd]3 [Fd] | %13
w: ||||
 ddBc B2 GG | [EA][EG][DF][CE] [B,D]4 | [DG][DG]AB [Ed][Ec][DB]A | %16
w: |||
 [B,DG][B,DG] [DGB]>[CFA] [B,G]4 |] %17
w: |
V:2
 G,2 G,2 G,D,B,,D, | G,2 D,>D, G,4 | F,>F, F,F,[K:treble] [G,DG][G,DG] [G,DG]2 | %3
 [A,^CE][A,CE][K:bass][A,CE][A,CE] D,3 D, | G,>G, G,G, G,D,B,,D, |[M:7/8] G,G,D, D, G,3 | %6
[M:1/8] G, |[M:4/4] [B,,G,]>[B,,G,] [B,,G,][B,,G,] [C,G,][C,G,]C,C, | D,D, D,>D, G,4 | %9
 D,2 F,2[K:treble] [G,DG]2 [B,DG]2 | [CDF]2 [A,DF]2 [G,DG]2 [G,B,G]2 | %11
 [C,C]>[C,C] [C,C][C,C][K:treble] [G,CG][G,B,G] [G,B,G]2 | %12
 [A,G]>[K:bass][A,,A,] [A,,A,][A,,A,] [D,A,]3 [D,C] | %13
 [G,B,G][G,B,G][G,DG][G,EG] [G,DG]2[K:bass] [G,B,D][G,B,D] | [C,C][C,C][C,G,][C,G,] [G,,G,]4 | %15
 [B,,G,][B,,G,][D,F,D][G,D] [C,G,][C,G,] z C | D,D, D,>D, G,4 |] %17
V:3
 x8 | x8 | x8 | x8 | x8 |[M:7/8] x7 |[M:1/8] x |[M:4/4] x8 | x8 | x8 | x8 | x8 | x8 | x8 | x8 | %15
 z4 z2 E2 | x8 |] %17
V:4
 x8 | x8 | x4[K:treble] x4 | x2[K:bass] x6 | x8 |[M:7/8] x7 |[M:1/8] x |[M:4/4] x8 | x8 | %9
 x4[K:treble] x4 | x8 | x4[K:treble] x4 | x3/2[K:bass] x13/2 | x6[K:bass] x2 | x8 | z4 z2 C,2 | %16
 x8 |] %17

